!!!OTL: "Richmut und Adocht" HOERT CHRISTENLEUT JETZT EIN NEUES LIED
!!!ARE: Europa, Mitteleuropa, Deutschland, Niederrhein
!!!SCT: Z1085
!!!YEM: Copyright 1995, estate of Helmut Schaffrath.
**kern
*ICvox
*Ivox
*M3/8
*k[b-e-]
*g:
{8d
=1
4g
8g
=2
8a
8a
8dd
=3
4cc
8b-
=4
4a}
{8b-
=5
8g
8a
8b-
=6
8a
8g
8f#
=7
4g
8a
=8
4d}
{8g
=9
4a
8dd
=10
8cc
8b-
8a
=11
8g
8a
8g
=12
4fn}
{8d
=13
8g
8a
16b-
16cc
=14
8dd
8g
16b-
16a
=15
8g
8g
8f#
=16
4g}
==
!!!AGN: Romanze, Ballade
!!!ONB: ESAC (Essen Associative Code) Database: ZUCCAL
!!!AMT: simple triple
!!!AIN: vox
!!!EED: Helmut Schaffrath
!!!EEV: 1.0
*-
